icons/glyphs/glyph-inkscape.svg

<?xml version="1.0" encoding="UTF-8" standalone="no"?><svg height="16" viewBox="0 0 16 16" width="16" xmlns="http://www.w3.org/2000/svg"><sodipodi:namedview/><metadata><rdf:RDF><cc:Work><dc:format>image/svg+xml</dc:format><dc:type/><dc:title/></cc:Work></rdf:RDF></metadata><path d="m7.8634466.00000408c-.4947262-.001-.9844473.181617-1.3394721.5498385l-3.1590521 3.27600122.2201678.3641595 1.4318006.059014 1.355097-2.3735169.708798 2.8902509 1.5511176-.9931641.8522622.4562791.2883485-1.7632251 1.6633309 1.3472483.565335-.3958262-2.7684324-2.86722072c-.3743685-.3642117-.8745739-.5488362-1.369301-.5498385zm2.4758214 3.96257972-.247156 1.5084575-1.4246978-.762865-2.0965653 1.34293-.4985734-2.0323875-.6051062 1.0608135-2.3408803-.097876-.338064-.558475-2.17042781 2.251172c-1.99561299 2.50426 1.35773451 2.212136 2.79542011 2.933432.5157204.5341757-1.9759296.9292137-1.4602093 1.4638357.5157204.534177 3.1182988 1.02898 3.6348985 1.563153.5157201.534178-1.0554864 1.100946-.5397662 1.635122.5157204.534177 1.7084478.02769 1.9317945 1.260887.1591565.881236 2.1487152.379171 3.1221202-.34257.51572-.534622-.9858841-.484895-.4701639-1.019072 1.2824859-1.328982 2.4759569-.483387 2.9147359-1.815043.216753-.658031-1.887321-1.013142-1.370721-1.54732 1.48385-.8781177 6.612439-1.4505737 4.178925-3.9165207l-2.785477-2.8859318-1.167599.8190008zm-5.2286283 5.9776945c.1578376.09935 2.5443746.5900027 3.1278023.6880177.2022434.04322.059999.254699-.2187471.397265-.628713.169297-3.6784592-1.0852817-2.9090552-1.0852827zm9.3720433 1.6826217c-.509843-.01306-1.035961.235823-1.174701.731198 0 .303843 2.2102.504187 2.2102-.07053-.14756-.43271-.585637-.64915-1.035499-.660669zm-10.2186239 1.315581c-.6923941-.006485-1.5049088.506393-.9076592 1.030587.5231945.458438 1.3315921-.114463 1.5738442-.754228-.1425733-.191963-.3952482-.273812-.666185-.276359zm8.7669379.0403c-.674437.613033.0767 1.235217.741468.839151.148165-.152368-.005-.686785-.741468-.839151z" fill="#fff" shape-rendering="crispEdges" stroke-width=".029956"/></svg>

<?xml version="1.0" encoding="UTF-8" standalone="no"?>
<!-- Created with Inkscape (http://www.inkscape.org/) -->

<svg
   xmlns:dc="http://purl.org/dc/elements/1.1/"
   xmlns:cc="http://creativecommons.org/ns#"
   xmlns:rdf="http://www.w3.org/1999/02/22-rdf-syntax-ns#"
   xmlns:svg="http://www.w3.org/2000/svg"
   xmlns="http://www.w3.org/2000/svg"
   xmlns:sodipodi="http://sodipodi.sourceforge.net/DTD/sodipodi-0.dtd"
   xmlns:inkscape="http://www.inkscape.org/namespaces/inkscape"
   width="16"
   height="16"
   viewBox="0 0 16 16"
   version="1.1"
   id="svg8"
   inkscape:version="0.92+devel (7f3bd2b258, 2017-08-07, custom)"
   sodipodi:docname="glyph-inkscape.svg">
  <defs
     id="defs2" />
  <sodipodi:namedview
     id="base"
     pagecolor="#002266"
     bordercolor="#ffffff"
     borderopacity="0.46666667"
     inkscape:pageopacity="0"
     inkscape:pageshadow="2"
     inkscape:zoom="37.000002"
     inkscape:cx="16.507117"
     inkscape:cy="12.650139"
     inkscape:document-units="px"
     inkscape:current-layer="svg8"
     inkscape:document-rotation="0"
     showgrid="false"
     inkscape:showpageshadow="false"
     borderlayer="true"
     units="px"
     fit-margin-top="0"
     fit-margin-left="0"
     fit-margin-right="0"
     fit-margin-bottom="0"
     inkscape:window-width="1920"
     inkscape:window-height="1027"
     inkscape:window-x="0"
     inkscape:window-y="24"
     inkscape:window-maximized="1" />
  <metadata
     id="metadata5">
    <rdf:RDF>
      <cc:Work
         rdf:about="">
        <dc:format>image/svg+xml</dc:format>
        <dc:type
           rdf:resource="http://purl.org/dc/dcmitype/StillImage" />
        <dc:title></dc:title>
      </cc:Work>
    </rdf:RDF>
  </metadata>
  <path
     inkscape:connector-curvature="0"
     id="path824"
     d="M 7.8634466,4.084549e-6 C 7.3687204,-9.9591545e-4 6.8789993,0.18162108 6.5239745,0.54984258 L 3.3649224,3.8258438 3.5850902,4.1900033 5.0168908,4.2490173 6.3719878,1.8755004 7.0807858,4.7657513 8.6319034,3.7725872 9.4841656,4.2288663 9.7725141,2.4656412 11.435845,3.8128895 12.00118,3.4170633 9.2327476,0.54984258 C 8.8583791,0.18563088 8.3581737,0.00100638 7.8634466,4.084549e-6 Z M 10.339268,3.9625838 10.092112,5.4710413 8.6674142,4.7081763 6.5708489,6.0511063 6.0722755,4.0187188 5.4671693,5.0795323 3.126289,4.9816563 2.788225,4.4231813 0.61779719,6.6743533 c -1.99561299,2.50426 1.35773451,2.212136 2.79542011,2.933432 0.5157204,0.5341757 -1.9759296,0.9292137 -1.4602093,1.4638357 0.5157204,0.534177 3.1182988,1.02898 3.6348985,1.563153 0.5157201,0.534178 -1.0554864,1.100946 -0.5397662,1.635122 0.5157204,0.534177 1.7084478,0.02769 1.9317945,1.260887 0.1591565,0.881236 2.1487152,0.379171 3.1221202,-0.34257 0.51572,-0.534622 -0.9858841,-0.484895 -0.4701639,-1.019072 1.2824859,-1.328982 2.4759569,-0.483387 2.9147359,-1.815043 0.216753,-0.658031 -1.887321,-1.013142 -1.370721,-1.54732 1.48385,-0.8781177 6.612439,-1.4505737 4.178925,-3.9165207 L 12.569354,4.0043255 11.401755,4.8233263 Z M 5.1106397,9.9402783 c 0.1578376,0.09935 2.5443746,0.5900027 3.1278023,0.6880177 0.2022434,0.04322 0.059999,0.254699 -0.2187471,0.397265 C 7.3909819,11.194858 4.3412357,9.9402793 5.1106397,9.9402783 Z M 14.482683,11.6229 c -0.509843,-0.01306 -1.035961,0.235823 -1.174701,0.731198 0,0.303843 2.2102,0.504187 2.2102,-0.07053 -0.14756,-0.43271 -0.585637,-0.64915 -1.035499,-0.660669 z M 4.2640591,12.938481 C 3.571665,12.931996 2.7591503,13.444874 3.3563999,13.969068 3.8795944,14.427506 4.687992,13.854605 4.9302441,13.21484 4.7876708,13.022877 4.5349959,12.941028 4.2640591,12.938481 Z m 8.7669379,0.0403 c -0.674437,0.613033 0.0767,1.235217 0.741468,0.839151 0.148165,-0.152368 -0.005,-0.686785 -0.741468,-0.839151 z"
     style="opacity:1;fill:#ffffff;stroke-width:0.02995609;shape-rendering:crispEdges"
     inkscape:label="#" />
</svg>
